Newaita-dark/actions/32/draw-line.svg

<svg height="32" viewBox="0 0 32 32" width="32" xmlns="http://www.w3.org/2000/svg"><g fill="#e0e0e0"><path d="m19.84375 4.21875c-.730469 0-1.320312.589844-1.320312 1.324219v6.613281c0 .734375.589843 1.324219 1.320312 1.324219h6.617188c.734374 0 1.324218-.589844 1.324218-1.324219v-6.613281c0-.734375-.589844-1.324219-1.324218-1.324219zm1.988281 2.644531h2.644531c.367188 0 .660157.296875.660157.664063v2.644531c0 .367187-.292969.664063-.660157.664063h-2.644531c-.367187 0-.664062-.296876-.664062-.664063v-2.644531c0-.367188.296875-.664063.664062-.664063zm0 0"/><path d="m5.292969 18.773438c-.734375 0-1.324219.589843-1.324219 1.320312v6.617188c0 .734374.589844 1.324218 1.324219 1.324218h6.613281c.734375 0 1.324219-.589844 1.324219-1.324218v-6.617188c0-.730469-.589844-1.320312-1.324219-1.320312zm1.984375 2.644531h2.644531c.367187 0 .664063.296875.664063.664062v2.644531c0 .367188-.296876.660157-.664063.660157h-2.644531c-.367188 0-.664063-.292969-.664063-.660157v-2.644531c0-.367187.296875-.664062.664063-.664062zm0 0"/><path d="m20.554688 10.511719.933593.9375c.261719.257812.261719.675781 0 .933593l-9.355469 9.355469c-.257812.261719-.675781.261719-.933593 0l-.9375-.933593c-.257813-.257813-.257813-.675782 0-.9375l9.355469-9.355469c.261718-.257813.679687-.257813.9375 0zm0 0"/></g></svg>

<svg xmlns="http://www.w3.org/2000/svg" xmlns:xlink="http://www.w3.org/1999/xlink" width="32px" height="32px" viewBox="0 0 32 32" version="1.1">
<g id="surface1">
     <defs>
  <style id="current-color-scheme" type="text/css">
   .ColorScheme-Text { color:#eeeeee; } .ColorScheme-Highlight { color:#424242; }
  </style>
 </defs>
<path style="fill:currentColor" class="ColorScheme-Text" d="M 19.84375 4.21875 C 19.113281 4.21875 18.523438 4.808594 18.523438 5.542969 L 18.523438 12.15625 C 18.523438 12.890625 19.113281 13.480469 19.84375 13.480469 L 26.460938 13.480469 C 27.195312 13.480469 27.785156 12.890625 27.785156 12.15625 L 27.785156 5.542969 C 27.785156 4.808594 27.195312 4.21875 26.460938 4.21875 Z M 21.832031 6.863281 L 24.476562 6.863281 C 24.84375 6.863281 25.136719 7.160156 25.136719 7.527344 L 25.136719 10.171875 C 25.136719 10.539062 24.84375 10.835938 24.476562 10.835938 L 21.832031 10.835938 C 21.464844 10.835938 21.167969 10.539062 21.167969 10.171875 L 21.167969 7.527344 C 21.167969 7.160156 21.464844 6.863281 21.832031 6.863281 Z M 21.832031 6.863281 "/>
     <defs>
  <style id="current-color-scheme" type="text/css">
   .ColorScheme-Text { color:#eeeeee; } .ColorScheme-Highlight { color:#424242; }
  </style>
 </defs>
<path style="fill:currentColor" class="ColorScheme-Text" d="M 5.292969 18.773438 C 4.558594 18.773438 3.96875 19.363281 3.96875 20.09375 L 3.96875 26.710938 C 3.96875 27.445312 4.558594 28.035156 5.292969 28.035156 L 11.90625 28.035156 C 12.640625 28.035156 13.230469 27.445312 13.230469 26.710938 L 13.230469 20.09375 C 13.230469 19.363281 12.640625 18.773438 11.90625 18.773438 Z M 7.277344 21.417969 L 9.921875 21.417969 C 10.289062 21.417969 10.585938 21.714844 10.585938 22.082031 L 10.585938 24.726562 C 10.585938 25.09375 10.289062 25.386719 9.921875 25.386719 L 7.277344 25.386719 C 6.910156 25.386719 6.613281 25.09375 6.613281 24.726562 L 6.613281 22.082031 C 6.613281 21.714844 6.910156 21.417969 7.277344 21.417969 Z M 7.277344 21.417969 "/>
     <defs>
  <style id="current-color-scheme" type="text/css">
   .ColorScheme-Text { color:#eeeeee; } .ColorScheme-Highlight { color:#424242; }
  </style>
 </defs>
<path style="fill:currentColor" class="ColorScheme-Text" d="M 20.554688 10.511719 L 21.488281 11.449219 C 21.75 11.707031 21.75 12.125 21.488281 12.382812 L 12.132812 21.738281 C 11.875 22 11.457031 22 11.199219 21.738281 L 10.261719 20.804688 C 10.003906 20.546875 10.003906 20.128906 10.261719 19.867188 L 19.617188 10.511719 C 19.878906 10.253906 20.296875 10.253906 20.554688 10.511719 Z M 20.554688 10.511719 "/>
</g>
</svg>
